X:5388
T:Flowers of Edinburgh. JWDM.37
M:4/4
L:1/8
Q:200
S:J.Winder MS,Wyresdale,Lancs.,1789
R:Reel
O:England
A:Lancashire
Z:vmp.Taz Tarry
K:G
"*"(GF/E/)|D3 E G3A|BABd B2 AG|F3E DEFG|AFdF EFGE|
D3E G3A|!BABd e3g|B2 AG AGAc|B2G2G2:||
:d2|gfga b2 ag|fefg a2 gf|!edef gfed|B2 e2e2g2|
dBAG d2 cB|edef g3a|B2 AG AGAc|B2 G2 G2:|]
%Key Sig of D in MS.
